svgs/sharp-solid/receipt.svg

<svg xmlns="http://www.w3.org/2000/svg" viewBox="0 0 384 512"><!--! Font Awesome Pro 6.6.0 by @fontawesome - https://fontawesome.com License - https://fontawesome.com/license (Commercial License) Copyright 2024 Fonticons, Inc. --><path d="M0 0L0 512l64-48 64 48 64-48 64 48 64-48 64 48L384 0 320 48 256 0 192 48 128 0 64 48 0 0zM96 144l192 0 16 0 0 32-16 0L96 176l-16 0 0-32 16 0zM80 336l16 0 192 0 16 0 0 32-16 0L96 368l-16 0 0-32zm16-96l192 0 16 0 0 32-16 0L96 272l-16 0 0-32 16 0z"/></svg>

<svg xmlns="http://www.w3.org/2000/svg" viewBox="0 0 384 512"><!--! Font Awesome Pro 6.4.2 by @fontawesome - https://fontawesome.com License - https://fontawesome.com/license (Commercial License) Copyright 2023 Fonticons, Inc. --><path d="M0 0V512l64-48 64 48 64-48 64 48 64-48 64 48V0L320 48 256 0 192 48 128 0 64 48 0 0zM96 144H288h16v32H288 96 80V144H96zM80 336H96 288h16v32H288 96 80V336zm16-96H288h16v32H288 96 80V240H96z"/></svg>
